X: 1
T: Chris the Grad
C: Jerry Holland
H: \251 fiddlesticksmusic.com, SOCAN
R: jig
Z: 2010 John Chambers <jc:trillian.mit.edu>
F: http://www.jerryholland.com/tunes/chrisgrad.GIF
M: 6/8
L: 1/8
K: A
|: aba aec | ABA ABc | BGE EFD | EGB dcB |
|  aba aec | ABA cBA | BGE dcB | ABA A2(f/g/) |
|: aba agf | gag gfe | fed Bcd | efe [1 egb |
|  aba agf | gag gfe | fdB EFG | ABA Afg :|
[2 dcB | ABA AEA | ABA cBA | BGE dcB | ABA A2 |]
